src/icons/outline/communication/message-reply.svg

<svg width="24" height="24" viewBox="0 0 24 24" fill="none" xmlns="http://www.w3.org/2000/svg">
<g clip-path="url(#clip0_6287_1382)">
<path d="M9.46085 4.01391C9.73894 3.97821 10.0214 4.01149 10.2832 4.11068L10.3942 4.15705L10.3972 4.15806C10.6842 4.29217 10.93 4.50498 11.1037 4.774C11.2774 5.04324 11.3715 5.3578 11.3725 5.68027V7.48273C13.2626 7.48864 16.8647 7.84512 19.5905 10.2247L19.8013 10.4142C21.9517 12.4063 23 15.2664 23 18.7763V18.7884C22.9958 19.0661 22.8977 19.332 22.7252 19.5445C22.5528 19.7567 22.3163 19.9033 22.0557 19.9659C21.7952 20.0284 21.5207 20.0047 21.2743 19.8973C21.0275 19.7898 20.8193 19.6031 20.6867 19.362L20.6857 19.359C19.306 16.8285 17.3107 15.7381 15.4425 15.3065C13.8275 14.9334 12.304 15.0556 11.3725 15.2057V17.5434L11.3675 17.6644C11.3475 17.947 11.2564 18.22 11.1027 18.4578C10.9272 18.729 10.6784 18.9431 10.3882 19.0767C10.0981 19.2102 9.77664 19.2587 9.46085 19.2189C9.14497 19.1791 8.84498 19.0519 8.59648 18.8489L8.58748 18.8419L8.57949 18.8348L1.59357 12.7853L1.59457 12.7843C1.41158 12.6286 1.26183 12.436 1.15889 12.2167C1.08058 12.0498 1.03025 11.8713 1.00999 11.6885L1 11.504C0.999754 11.2531 1.05536 11.0058 1.16288 10.7802C1.27053 10.5543 1.42741 10.3565 1.61955 10.1995L8.59048 4.39194L8.59248 4.38992C8.84135 4.18429 9.14313 4.05468 9.46085 4.01391ZM9.65471 5.55023C9.61972 5.55472 9.58903 5.5684 9.56577 5.58753L2.59084 11.3981L2.58585 11.4032H2.58485C2.56722 11.4177 2.55492 11.4347 2.54688 11.4516C2.53883 11.4685 2.53486 11.4862 2.53488 11.503V11.504C2.5349 11.5205 2.53808 11.5378 2.54588 11.5544L2.58385 11.6018L2.59284 11.6098L9.56377 17.6463C9.58684 17.6647 9.6166 17.6782 9.65071 17.6826C9.68561 17.6869 9.72057 17.6812 9.75064 17.6674C9.78059 17.6536 9.80353 17.6337 9.81759 17.612C9.83147 17.5905 9.83761 17.5671 9.83757 17.5455V14.743C9.84033 14.5117 9.92205 14.2907 10.0654 14.1149L10.1813 13.994C10.3067 13.8839 10.4571 13.8077 10.618 13.7702L10.628 13.7671L10.638 13.7651C11.5806 13.5715 13.5923 13.2908 15.7852 13.7974C17.7416 14.2493 19.8378 15.3299 21.4201 17.62C21.2237 15.0954 20.3697 13.1295 18.928 11.7117L18.5862 11.3961C16.0268 9.16169 12.4423 8.98487 10.8728 9.03821L10.8478 9.03922L10.8229 9.03821C10.5916 9.03103 10.3666 8.94635 10.1863 8.79425L10.1663 8.77711L10.1473 8.75897C9.96292 8.58025 9.84972 8.3356 9.83757 8.07246V5.68431L9.83258 5.65205C9.82932 5.64091 9.82456 5.62958 9.81759 5.61878C9.80414 5.59796 9.78269 5.57911 9.75463 5.56535L9.70667 5.55023C9.68974 5.54764 9.67225 5.54799 9.65471 5.55023Z" fill="#3C3B44"/>
</g>
<defs>
<clipPath id="clip0_6287_1382">
<rect width="24" height="24" fill="white"/>
</clipPath>
</defs>
</svg>

<svg xmlns="http://www.w3.org/2000/svg" width="24" height="24" fill="none" viewBox="0 0 24 24"><g clip-path="url(#a)"><path fill="currentColor" d="M9.46 4.014c.279-.036.561-.003.823.097l.111.046.003.001a1.68 1.68 0 0 1 .975 1.522v1.803c1.89.006 5.493.362 8.218 2.742l.211.19c2.15 1.99 3.199 4.85 3.199 8.36v.012a1.23 1.23 0 0 1-.944 1.178 1.235 1.235 0 0 1-1.37-.604v-.003c-1.38-2.53-3.375-3.62-5.243-4.053-1.615-.373-3.139-.25-4.07-.1v2.337l-.005.121a1.68 1.68 0 0 1-.98 1.413 1.71 1.71 0 0 1-1.792-.228l-.009-.007-.008-.007-6.985-6.05a1.7 1.7 0 0 1-.584-1.097L1 11.505a1.68 1.68 0 0 1 .62-1.304l6.97-5.808.002-.002c.25-.206.551-.335.869-.376m.195 1.536a.2.2 0 0 0-.09.038l-6.974 5.81-.005.005h-.001a.14.14 0 0 0-.038.049.1.1 0 0 0-.012.051v.001q0 .026.01.05l.039.048.009.008 6.97 6.036a.2.2 0 0 0 .088.037.2.2 0 0 0 .1-.016.16.16 0 0 0 .067-.055.12.12 0 0 0 .02-.066v-2.803a1 1 0 0 1 .227-.628l.116-.121a1 1 0 0 1 .437-.224l.01-.003.01-.002c.943-.194 2.954-.474 5.147.032 1.957.452 4.053 1.533 5.635 3.823-.196-2.525-1.05-4.49-2.492-5.908l-.342-.316c-2.56-2.234-6.144-2.411-7.713-2.358l-.025.001h-.025a1.04 1.04 0 0 1-.637-.245l-.02-.017-.019-.018a1.02 1.02 0 0 1-.31-.687V5.684l-.004-.032a.1.1 0 0 0-.015-.033.16.16 0 0 0-.063-.054l-.048-.015a.2.2 0 0 0-.052 0"/></g><defs><clipPath id="a"><path fill="currentColor" d="M0 0h24v24H0z"/></clipPath></defs></svg>
